public/swb_home.svg

<?xml version="1.0" encoding="UTF-8" standalone="no"?>
<svg
   width="1000"
   height="1000"
   viewBox="0 0 64 64"
   fill="none"
   stroke="currentColor"
   stroke-width="2"
   stroke-linecap="round"
   stroke-linejoin="round"
   class="icon icon-tabler icons-tabler-outline icon-tabler-home-down"
   version="1.1"
   id="svg16574"
   sodipodi:docname="swb_home.svg"
   inkscape:version="1.4 (86a8ad7, 2024-10-11)"
   xmlns:inkscape="http://www.inkscape.org/namespaces/inkscape"
   xmlns:sodipodi="http://sodipodi.sourceforge.net/DTD/sodipodi-0.dtd"
   xmlns="http://www.w3.org/2000/svg"
   xmlns:svg="http://www.w3.org/2000/svg">
  <defs
     id="defs16578" />
  <sodipodi:namedview
     id="namedview16576"
     pagecolor="#ffffff"
     bordercolor="#000000"
     borderopacity="0.25"
     inkscape:showpageshadow="2"
     inkscape:pageopacity="0.0"
     inkscape:pagecheckerboard="0"
     inkscape:deskcolor="#d1d1d1"
     showgrid="false"
     inkscape:zoom="6.3565953"
     inkscape:cx="-10.146941"
     inkscape:cy="32.328627"
     inkscape:window-width="1920"
     inkscape:window-height="1009"
     inkscape:window-x="1912"
     inkscape:window-y="-8"
     inkscape:window-maximized="1"
     inkscape:current-layer="svg16574" />
  <path
     id="path16566"
     style="color:#000000;fill:#000000;stroke:none;stroke-width:5.75987;-inkscape-stroke:none"
     d="M 32,3.200628 A 2.8802252,2.8802252 0 0 0 29.963795,4.0443598 L 4.0443598,29.963795 a 2.8802252,2.8802252 0 0 0 2.0362055,4.916142 h 2.8799372 v 17.279624 c 0,4.737514 3.9022965,8.639811 8.6398115,8.639811 H 23.360188 32 h 8.639812 5.759874 c 4.737514,0 8.639812,-3.902297 8.639812,-8.639811 V 34.879937 h 2.879937 A 2.8802252,2.8802252 0 0 0 59.95564,29.963795 L 34.036205,4.0443598 A 2.8802252,2.8802252 0 0 0 32,3.200628 Z m 0,6.952348 19.563324,19.563323 A 2.8802252,2.8802252 0 0 0 49.279623,32 v 20.159561 c 0,1.624653 -1.255284,2.879937 -2.879937,2.879937 H 43.519749 V 40.639812 C 43.519749,35.902298 39.617451,32 34.879937,32 h -5.759874 c -4.737516,0 -8.639812,3.902298 -8.639812,8.639812 v 14.399686 h -2.879937 c -1.624654,0 -2.879937,-1.255284 -2.879937,-2.879937 V 32 a 2.8802252,2.8802252 0 0 0 -2.283701,-2.283701 z m -2.879937,27.606899 h 5.759874 c 1.624651,0 2.879938,1.255286 2.879938,2.879937 V 55.039498 H 32 26.240126 V 40.639812 c 0,-1.624651 1.255284,-2.879937 2.879937,-2.879937 z" />
</svg>

<svg width="1000" height="1000" viewBox="0 0 64 64" fill="none" stroke="currentColor" stroke-width="2" stroke-linecap="round" stroke-linejoin="round" class="icon icon-tabler icons-tabler-outline icon-tabler-home-down" xmlns="http://www.w3.org/2000/svg">
    <path style="color:#000;fill:#000;stroke:none;stroke-width:5.75987;-inkscape-stroke:none" d="M32 3.2a2.88 2.88 0 0 0-2.036.844l-25.92 25.92a2.88 2.88 0 0 0 2.037 4.916h2.88v17.28c0 4.737 3.902 8.64 8.64 8.64H46.4c4.737 0 8.64-3.903 8.64-8.64V34.88h2.88a2.88 2.88 0 0 0 2.036-4.916l-25.92-25.92A2.88 2.88 0 0 0 32 3.201Zm0 6.953 19.563 19.563A2.88 2.88 0 0 0 49.28 32v20.16c0 1.624-1.256 2.88-2.88 2.88h-2.88v-14.4c0-4.738-3.903-8.64-8.64-8.64h-5.76c-4.737 0-8.64 3.902-8.64 8.64v14.4H17.6c-1.624 0-2.88-1.256-2.88-2.88V32a2.88 2.88 0 0 0-2.283-2.284zM29.12 37.76h5.76c1.625 0 2.88 1.255 2.88 2.88v14.4H26.24v-14.4c0-1.625 1.255-2.88 2.88-2.88z" stroke="none"/>
</svg>
